X: 2054
T: BONNIE ANNIE
C:
Q: "Reel."
R: Reel.
%R: reel
B: James Kerr "Merry Melodies" v.2 p.9 #54
Z: 2016 John Chambers <jc:trillian.mit.edu>
M: C
L: 1/8
K: Am
c |\
A/A/A (AG) EGGc | A/A/A (AB) cded |\
cBcG EGGc | A/A/A (e^g) aAA :|\
ug |\
(e/f/g) (cg) ecgc | BGdG Bcdf |
ecgc egca | gede cAAg |\
agea gced | cAGc EcGc |\
AcGA cdea | gede cAA |]
